res/ScrewDark.svg

<?xml version="1.0" encoding="UTF-8" standalone="no"?>
<!DOCTYPE svg PUBLIC "-//W3C//DTD SVG 1.1//EN" "http://www.w3.org/Graphics/SVG/1.1/DTD/svg11.dtd">
<svg width="14px" height="14px" version="1.1" xmlns="http://www.w3.org/2000/svg" xmlns:xlink="http://www.w3.org/1999/xlink" xml:space="preserve" xmlns:serif="http://www.serif.com/" style="fill-rule:evenodd;clip-rule:evenodd;stroke-miterlimit:10;">
    <g transform="matrix(1.29585,0,0,1.29585,-1.58727,-1.58697)">
        <circle cx="7.001" cy="7" r="5.016" style="fill-opacity:0.87451;"/>
    </g>
    <circle cx="7.001" cy="7" r="5.016"/>
    <path id="Screw" d="M2.758,2.757c-2.343,2.342 -2.343,6.143 0,8.486c2.342,2.343 6.143,2.343 8.485,-0.001c2.345,-2.343 2.346,-6.142 0,-8.484c-2.343,-2.344 -6.141,-2.345 -8.485,-0.001Zm5.451,4.243l1.773,1.773l-1.208,1.207l-1.773,-1.773l-1.773,1.774l-1.208,-1.208l1.773,-1.775l-1.775,-1.771l1.208,-1.208l1.775,1.774l1.774,-1.775l1.209,1.207l-1.775,1.775Z" style="fill:#494949;fill-rule:nonzero;stroke:#3d3d3d;stroke-width:1px;"/>
</svg>

<?xml version="1.0" encoding="utf-8"?>
<!-- Generator: Adobe Illustrator 16.0.0, SVG Export Plug-In . SVG Version: 6.00 Build 0)  -->
<!DOCTYPE svg PUBLIC "-//W3C//DTD SVG 1.1//EN" "http://www.w3.org/Graphics/SVG/1.1/DTD/svg11.dtd">
<svg xmlns:inkscape="http://www.inkscape.org/namespaces/inkscape"
	 xmlns:svg="http://www.w3.org/2000/svg" xmlns:sodipodi="http://sodipodi.sourceforge.net/DTD/sodipodi-0.dtd" xmlns:rdf="http://www.w3.org/1999/02/22-rdf-syntax-ns#" xmlns:cc="http://creativecommons.org/ns#" xmlns:dc="http://purl.org/dc/elements/1.1/" xmlns:xlink="http://www.w3.org/1999/xlink" version="1.1" id="ScrewDark" inkscape:version="0.92.2 5c3e80d, 2017-08-06"
	 sodipodi:docname="ScrewBlack.svg" xmlns="http://www.w3.org/2000/svg" x="0px" y="0px" width="14px" height="14px"
	 viewBox="0 0 14 14" enable-background="new 0 0 14 14" xml:space="preserve">
<circle cx="7.001" cy="7" r="5.016"/>
<path id="Screw" fill="#494949" stroke="#3D3D3D" stroke-miterlimit="10" d="M2.758,2.757c-2.343,2.342-2.343,6.143,0,8.486
	c2.342,2.343,6.143,2.343,8.485-0.001c2.345-2.343,2.346-6.142,0-8.484C8.9,0.414,5.102,0.413,2.758,2.757z M8.209,7l1.773,1.773
	L8.774,9.98L7.001,8.207L5.228,9.981L4.02,8.773l1.773-1.775L4.018,5.227l1.208-1.208l1.775,1.774l1.774-1.775l1.209,1.207L8.209,7z
	"/>
<sodipodi:namedview  units="px" inkscape:cy="1.4049767" fit-margin-left="0" id="base" pagecolor="#ffffff" bordercolor="#666666" fit-margin-top="0" inkscape:cx="-60.109471" inkscape:zoom="7.9195959" borderopacity="1.0" showgrid="false" fit-margin-bottom="0" inkscape:window-maximized="0" inkscape:window-x="0" fit-margin-right="0" inkscape:window-width="2560" inkscape:window-height="1422" inkscape:window-y="18" inkscape:current-layer="layer1" inkscape:pageshadow="2" inkscape:pageopacity="0.0" inkscape:document-units="mm">
	</sodipodi:namedview>
</svg>
